frontend/public/svg/e-commerce/hand-truck.svg

<svg width="149" height="141" viewBox="0 0 149 141" fill="none" xmlns="http://www.w3.org/2000/svg">
<path d="M96.7157 40.1194C99.8464 38.7116 102.684 37.424 105.532 36.1606C106.963 35.5253 108.383 34.8414 109.863 34.3425C113.753 33.0331 115.605 33.4793 117.987 36.8923C120.252 40.0976 122.283 43.4616 124.066 46.9585C128.89 56.5745 133.54 66.2784 138.177 75.9882C139.277 78.2919 140.045 80.7551 140.98 83.1842C142.166 83.0661 143.366 82.8502 144.565 82.8502C145.299 82.8167 146.026 83.0057 146.652 83.3917C147.277 83.7782 147.77 84.3447 148.069 85.0167C148.448 85.6521 148.603 86.3964 148.508 87.1308C148.413 87.8646 148.073 88.5452 147.544 89.0624C146.069 90.4105 144.398 91.5263 142.587 92.371C130.92 97.8409 119.195 103.184 107.511 108.619C103.551 110.461 99.6896 112.518 95.7181 114.333C95.1497 114.528 94.6581 114.898 94.3155 115.392C93.9735 115.886 93.7976 116.476 93.8154 117.076C93.6565 119.537 93.2607 121.977 92.6339 124.362C91.4735 128.503 89.0569 132.183 85.7181 134.893C82.3787 137.603 78.2812 139.211 73.9894 139.494C70.6453 139.849 67.2672 139.705 63.9654 139.069C50.1627 135.956 44.8384 121.881 52.8733 110.246C53.6997 109.05 54.631 107.926 55.7409 106.471C43.8231 77.2805 30.7567 48.4315 17.5945 19.2323C15.9471 19.8755 14.5294 20.442 13.1012 20.9828C10.9005 21.8163 8.72083 22.7234 6.47614 23.4165C5.42801 23.8157 4.28279 23.8843 3.19446 23.6133C2.1053 23.1704 1.2251 22.3302 0.731903 21.2629C0.255402 20.0251 1.1257 18.8659 2.38849 18.3375C3.83244 17.7317 5.39911 17.3917 6.80499 16.7144C10.0355 15.1575 13.2496 13.5528 16.379 11.8043C19.8136 9.88582 22.2427 10.3606 24.255 13.8464C25.6524 16.2683 26.7622 18.8553 28.0119 21.3632C28.2055 21.7511 28.4595 22.1089 28.8166 22.6964C29.9711 22.1713 31.0652 21.7027 32.1409 21.1921C45.3071 14.9365 58.4542 8.64016 71.6443 2.43644C75.9603 0.406386 78.1899 1.07717 80.6367 5.18453C82.3347 8.0845 83.8607 11.0819 85.2075 14.1608C88.5397 21.6293 91.7354 29.1587 95.0033 36.6567C95.4464 37.6734 95.9872 38.6512 96.7157 40.1194ZM112.927 42.1352C91.3994 51.2642 71.0818 61.1474 50.6661 71.0696L63.5487 100.922C73.3284 98.6167 82.462 100.033 90.4995 106.817L132.83 87.0271L112.927 42.1352ZM88.2739 43.8921C83.8193 32.3019 79.1613 20.9859 74.0681 9.76256L31.8279 29.2624C37.7126 40.9071 41.6421 53.1531 47.4986 64.2899L88.2739 43.8921ZM69.0478 131.447C77.9084 131.471 83.1643 127.58 84.7198 119.841C85.77 114.606 84.1777 111.465 79.2716 109.411C77.1057 108.504 74.8419 107.835 72.636 107.023C66.4828 104.751 64.9427 105.111 60.7684 110.114C59.6773 111.392 58.7378 112.792 57.9685 114.286C56.6466 116.938 55.9995 119.758 56.7083 122.753C58.0282 128.344 62.3968 131.428 69.0445 131.446L69.0478 131.447Z" fill="black"/>
<path d="M102.276 59.044C100.438 58.5261 98.8975 58.1151 98.2674 56.41C97.9353 55.6755 97.8907 54.8428 98.1427 54.0769C98.3954 53.3111 98.9264 52.6681 99.63 52.2752C101.647 51.079 103.787 50.1051 106.014 49.3704C106.884 49.0886 107.827 49.1314 108.668 49.4912C109.509 49.851 110.192 50.5035 110.589 51.3276C110.956 52.1089 111.011 53.0008 110.742 53.8212C110.474 54.6415 109.903 55.3286 109.145 55.7421C107.007 57.0863 104.579 57.9669 102.276 59.044Z" fill="black"/>
<path d="M63.9858 24.5066C62.2189 23.952 60.6438 23.7375 59.9408 22.0126C59.6054 21.2869 59.5485 20.4633 59.7807 19.6984C60.0129 18.9335 60.5182 18.2804 61.2003 17.8637C63.1399 16.6024 65.2576 15.6392 67.4827 15.006C68.3162 14.8043 69.1944 14.917 69.9499 15.3223C70.7053 15.7276 71.2848 16.3971 71.5776 17.2028C71.9642 17.9695 72.0423 18.8551 71.7961 19.6776C71.55 20.5001 70.9987 21.1972 70.2551 21.6261C68.3005 22.8101 66.0874 23.5654 63.9858 24.5066Z" fill="black"/>
</svg>

<svg xmlns="http://www.w3.org/2000/svg" width="149" height="141" fill="none" viewBox="0 0 149 141"><path fill="#000" d="M96.716 40.12c3.13-1.408 5.968-2.696 8.816-3.96 1.431-.635 2.851-1.319 4.331-1.817 3.89-1.31 5.742-.864 8.124 2.55a82 82 0 0 1 6.079 10.066c4.824 9.615 9.474 19.32 14.111 29.03 1.1 2.303 1.868 4.766 2.803 7.195 1.186-.118 2.386-.334 3.585-.334a3.66 3.66 0 0 1 2.087.542 3.66 3.66 0 0 1 1.417 1.625 3.3 3.3 0 0 1-.525 4.045 19.7 19.7 0 0 1-4.957 3.309c-11.667 5.47-23.392 10.813-35.076 16.248-3.96 1.842-7.821 3.899-11.793 5.714a2.82 2.82 0 0 0-1.903 2.743 38.4 38.4 0 0 1-1.181 7.286 20.79 20.79 0 0 1-18.645 15.132 34 34 0 0 1-10.024-.425c-13.802-3.113-19.127-17.188-11.092-28.823.827-1.196 1.758-2.32 2.868-3.775-11.918-29.19-24.984-58.04-38.146-87.239-1.648.643-3.066 1.21-4.494 1.75-2.2.834-4.38 1.741-6.625 2.435a5.5 5.5 0 0 1-3.282.196 4.64 4.64 0 0 1-2.462-2.35c-.477-1.238.394-2.397 1.656-2.926 1.444-.605 3.011-.945 4.417-1.623 3.23-1.556 6.445-3.161 9.574-4.91 3.435-1.918 5.864-1.443 7.876 2.042 1.397 2.422 2.507 5.01 3.757 7.517.194.388.447.746.805 1.333 1.154-.525 2.248-.993 3.324-1.504C45.307 14.937 58.454 8.64 71.644 2.436c4.316-2.03 6.546-1.359 8.993 2.749a86 86 0 0 1 4.57 8.976c3.333 7.468 6.528 14.998 9.796 22.496.443 1.016.984 1.994 1.713 3.462m16.211 2.015c-21.528 9.13-41.845 19.012-62.26 28.935l12.882 29.852c9.78-2.305 18.913-.889 26.95 5.895l42.331-19.79zm-24.653 1.757c-4.455-11.59-9.113-22.906-14.206-34.13l-42.24 19.5c5.885 11.645 9.814 23.891 15.67 35.028zm-19.226 87.555c8.86.024 14.116-3.867 15.672-11.606 1.05-5.235-.542-8.376-5.448-10.43-2.166-.907-4.43-1.576-6.636-2.388-6.153-2.272-7.693-1.912-11.868 3.091a21.8 21.8 0 0 0-2.8 4.172c-1.321 2.652-1.969 5.472-1.26 8.467 1.32 5.591 5.689 8.675 12.337 8.693z"/><path fill="#000" d="M102.276 59.044c-1.838-.518-3.379-.929-4.009-2.634a3.22 3.22 0 0 1 1.363-4.135 32.4 32.4 0 0 1 6.384-2.905 3.784 3.784 0 0 1 4.575 1.958 3.386 3.386 0 0 1-1.444 4.415c-2.138 1.343-4.566 2.224-6.869 3.301m-38.29-34.537c-1.767-.555-3.342-.77-4.045-2.494a3.26 3.26 0 0 1 1.26-4.15 23.1 23.1 0 0 1 6.282-2.857 3.485 3.485 0 0 1 4.095 2.197 3.36 3.36 0 0 1-1.323 4.423c-1.954 1.184-4.168 1.94-6.27 2.88"/></svg>
